!!!!SEGMENT: pl-wtm--r-1350--010_stefani-jozef--fraszka-muzyczna-allegro.krn
!!!cenid: 18xx:1859
!!!COM: Stefani, Józef
!!!COM-rismid: pe30024097
!!!CDT: 1800/04/16-1876/03/19
!!!CNT: Polish
!!!OTL: Fraszka muzyczna – Allegro
!!!PDT:
!!!AGN: Secular
!!!SMS-siglum: PL-Wtm
!!!SMS-shelfmark: R 1350
!!!SMS-shelfwork: 010 G
!!!SMS-variant:
!!!SMS-altvar:
!!!NIFC-rismid: 1001119474
!!!URL-scan: http://repozytorium.nifc.pl/skany/pl-wtm-nut--r1350
!!!ONB-nifc: UWAGA: skan 0006
!!!OMD: Allegro
**kern	**fing	**kern	**fing	**dynam
*part1	*	*part1	*	*part1
*staff2	*	*staff1	*	*
*I"Fortepian	*	*I"Fortepian	*	*
*clefG2	*	*clefG2	*	*
*k[f#]	*	*k[f#]	*	*
*M4/4	*	*M4/4	*	*
*met(c)	*	*met(c)	*	*
*>[A,A,B]	*>[A,A,B]	*>[A,A,B]	*>[A,A,B]	*>[A,A,B]
=1!|:	=1!|:	=1!|:	=1!|:	=1!|:
*>A	*>A	*>A	*>A	*>A
*	*^	*	*	*
!	!	!	!LO:TX:b:i:t= Ima volta forte 2da piano	!	!
4G/	5	.	16dd\LL	3	.
.	.	.	16ee\	4	.
.	.	.	16dd\	3	.
.	.	.	16b\JJ	1	.
4d 4B/	1	3	16dd\LL	.	.
.	.	.	16ee\	.	.
.	.	.	16dd\	.	.
.	.	.	16b\JJ	.	.
4G/	.	.	16cc\LL	3	.
.	.	.	16dd\	4	.
.	.	.	16cc\	3	.
.	.	.	16a\JJ	1	.
4e 4c/	1	2	16cc\LL	.	.
.	.	.	16dd\	.	.
.	.	.	16cc\	.	.
.	.	.	16a\JJ	.	.
=2	=2	=2	=2	=2	=2
4G/	.	.	16b/LL	3	.
.	.	.	16cc/	4	.
.	.	.	16b/	3	.
.	.	.	16g/JJ	1	.
4d 4B/	1	3	16b/LL	.	.
.	.	.	16cc/	.	.
.	.	.	16b/	.	.
.	.	.	16g/JJ	.	.
4G/	.	.	16a/LL	4	.
.	.	.	16b/	5	.
.	.	.	16a/	4	.
.	.	.	16f#/JJ	2	.
4e 4c/	1	2	16a/LL	.	.
.	.	.	16b/	.	.
.	.	.	16a/	.	.
.	.	.	16f#/JJ	.	.
!!LO:LB:g=original
=3:|!	=3:|!	=3:|!	=3:|!	=3:|!	=3:|!
*>B	*>B	*>B	*>B	*>B	*>B
*	*	*	*	*^	*
!	!	!	!	!	!	!LO:DY:t=for
4d 4B 4G/	1	3 5	16g/LL	1	.	f
.	.	.	16a/	.	.	.
.	.	.	16b/	.	.	.
.	.	.	16cc/JJ	1	.	.
4r	.	.	16dd\LL	.	.	.
.	.	.	16ee\	.	.	.
.	.	.	16ff#\	.	.	.
.	.	.	16gg\JJ	.	.	.
4c/	2	.	4ee 4cc\	.	.	.
4d/	1	.	4ff# 4dd 4cc\	.	.	.
*	*v	*v	*	*	*	*
=4	=4	=4	=4	=4	=4
16G/LL	5	4gg 4dd 4b\	5	3 1	.
16A/	.	.	.	.	.
16B/	.	.	.	.	.
16c/JJ	.	.	.	.	.
16d/LL	.	4r	.	.	.
16e/	3	.	.	.	.
16f#/	.	.	.	.	.
16g/JJ	.	.	.	.	.
4c/	2	4ee 4cc\	.	.	.
4d/	1	4ff# 4dd 4cc\	.	.	.
!!LO:PB:g=original
=5	=5	=5	=5	=5	=5
4g/	.	16ggLL 16dd 16b\	5	3 1	.
.	.	16ff#\	.	.	.
.	.	16ee\	.	.	.
.	.	16dd\JJ	.	.	.
4r	.	16cc/LL	.	.	.
.	.	16b/	3	.	.
.	.	16a/	.	.	.
.	.	16g/JJ	.	.	.
4c/	4	4ee 4cc\	3	1	.
4d/	3	4ff# 4dd 4cc\	4	2 1	.
=6	=6	=6	=6	=6	=6
*	*^	*	*	*	*
16g/LL	.	1	4gg 4dd 4b\	5	3 1	.
16f#/	.	.	.	.	.	.
16e/	.	.	.	.	.	.
16d/JJ	1	1	.	.	.	.
16c/LL	.	.	4r	.	.	.
16B/	.	.	.	.	.	.
16A/	.	.	.	.	.	.
16G/JJ	.	.	.	.	.	.
4c/	2	.	4ee 4cc\	.	.	.
4d/	1	.	4ff# 4dd 4cc\	.	.	.
*	*v	*v	*	*	*	*
*	*	*	*v	*v	*
!!LO:LB:g=original
=7	=7	=7	=7	=7
4G/	.	4gg 4dd 4b\	.	.
4r	.	4r	.	.
2r	.	2r	.	.
==	==	==	==	==
*-	*-	*-	*-	*-
!!!system-decoration: {(s1,s2)}
!!!ENC: Marta Lawrence
!!!END: 2021-05-04
!!!ENC: Andrzej Gręziak
!!!END: 2021-04-10
